X:1
T:Bunessan
T:Traditional Gaelic melody
T:Bunessan
T:Public Domain
T:Public Domain
C:Traditional Gaelic melody
Z:Public Domain
%%score ( 1 2 ) { ( 3 4 ) | ( 5 6 ) } ( 7 8 )
L:1/8
M:9/4
K:C
V:1 treble 
V:2 treble 
V:3 treble 
V:4 treble 
V:5 bass 
V:6 bass 
V:7 bass 
V:8 bass 
V:1
 C2 E2 G2 | E4 G2 d6 B2 A2 G2 | A3 B A2 [EG]6 C2 D2 E2 | G6 E4 D2 G3 E C2 | D12 [EG]2 E2 G2 | %5
 c6 C2 E2 F2 [DG]3 E C2 | C6 D6 E2 D2 E2 | G6 A6 D2 [CE]3 [B,D] | C12 |] %9
V:2
 x6 | c6 x2 G2 F2 E2 x4 | E4 F E2 x6 C2 C2 x | E6 A6 D3 D x2 | x18 | E6 A6 x6 | x18 | x12 C2 x4 | %8
 x12 |] %9
V:3
 C2- C2 [B,G]2 | [CE]2 [FA]2 [EG]2 [DF]4 E2 B2 A2 G2 | E3 F E2 [EG]6 C2- D2 E2 | %3
 [B,D]4 C2 E2 E2 D2 G3 [G,E] C2- | C2 B,2 A,2 D6 G2 E2 [B,DG]2 | c6 [CE]4 D2 [EG]3 E C2 | %6
 C6- C2 A,2 B,2 [CE]2 [B,D]2 [CE]2 | D2 E2 D2 C6- D2 E3 [B,D] | C12 |] %9
V:4
 x2 E2 x2 | c6 d6 [DF]6 | A6 x5 C6 x | G6 A6 x6 | D6- B,6 C4 x2 | [CE]6- A6 x6 | x6 D6 x6 | %7
 G6 A6 C4 x2 | x12 |] %9
V:5
 [C,E,]4 [D,F,]2 | [E,G,]2 [D,F,]2 [E,G,]2 [F,A,]6 G,2 A,2 B,2 | C3 D C2 B,6 A,4 G,2 | %3
 B,2 D2 E,2 D,2 C,2 B,,2 C,4 E,2 | G,6- G,,4 F,2 [E,G,]4 [D,F,]2 | %5
 [C,E,]2 [D,F,]2 [E,G,]2 A,4 B,2 [E,C]4 A,2 | [G,_B,]2 [F,A,]2 [E,G,]2 [D,F,]6 [C,G,]6 | %7
 B,,2 C,2 B,,2 G,2 F,2 [G,,E,]2 A,2 A,3 [G,,F,] | [C,E,]12 |] %9
V:6
 x6 | x12 E,2 F,2 G,2 | x18 | E,4 x14 | x6 G,6 x6 | x6 F,6 x6 | x18 | G,6- A,,4 F,2 D,3 x3 | x12 |] %9
V:7
 [C,E,]4 [D,F,]2 | [E,G,]2 [D,F,]2 [E,G,]2 [F,A,]6 G,2 A,2 B,2 | C3 D C2 B,6 A,4 G,2 | %3
 B,2 D2 E,2 D,2 C,2 B,,2 C,4 E,2 | G,6- G,,4 F,2 [E,G,]4 [D,F,]2 | %5
 [C,E,]2 [D,F,]2 [E,G,]2 A,4 B,2 [E,C]4 A,2 | [G,_B,]2 [F,A,]2 [E,G,]2 [D,F,]6 [C,G,]6 | %7
 B,,2 C,2 B,,2 G,2 F,2 [G,,E,]2 A,2 A,3 [G,,F,] | [C,E,]12 |] %9
V:8
 x6 | x12 E,2 F,2 G,2 | x18 | E,4 x14 | x6 G,6 x6 | x6 F,6 x6 | x18 | G,6- A,,4 F,2 D,3 x3 | x12 |] %9

